!!!OTL: Kranzsingen
!!!ARE: Europa, Mitteleuropa, Deutschland
!!!SCT: A0271A
!!!YEM: Copyright 1995, estate of Helmut Schaffrath.
**kern
*ICvox
*Ivox
*M4/1
*k[b-]
*F:
{2f
=1
1cc
1cc
1dd
1cc
=2
1a
2b-
2g
1a
2r}
{2f
=3
1cc
1cc
1cc
2a
2b-
=4
2cc
2b-
2a
2g
1f
2r}
{2f
=5
1f
1g
1a
1a
=6
1f
1g
1a
2r}
{2f
=7
1cc
1cc
1cc
1a
=8
1b-
1g
1.f}
==
!!!AGN: Romanze, Ballade, Lied
!! Klugs Gsgb 1535 No. 28
!!!ONB: ESAC (Essen Associative Code) Database: ALTDEU
!!!AMT: simple quadruple
!!!AIN: vox
!!!EED: Helmut Schaffrath
!!!EEV: 1.0
*-
